Themes/OneUI/assets/svg/ic_settings_display.svg

<svg width="28" height="28" viewBox="0 0 28 28" fill="none" xmlns="http://www.w3.org/2000/svg">
<g clip-path="url(#clip0_1_2146)">
<path d="M24.856 3.14401C23.13 1.52161 20.7739 0.601214 18.1738 0.256914C15.6907 -0.072186 14 0.00881404 14 0.00881404C14 0.00881404 12.309 -0.072186 9.82579 0.256914C7.22579 0.601214 4.86979 1.52161 3.14429 3.14401C1.52149 4.86981 0.601191 7.22591 0.256691 9.82591C-0.0724094 12.3089 0.0088906 13.9999 0.0088906 13.9999C0.0088906 13.9999 -0.0724094 15.6907 0.256691 18.1739C0.601191 20.7737 1.52149 23.13 3.14409 24.8558C4.86979 26.4784 7.22579 27.3986 9.82579 27.7433C12.309 28.0722 14 27.9912 14 27.9912C14 27.9912 15.6907 28.0722 18.1738 27.7433C20.7739 27.3986 23.13 26.4784 24.8556 24.8558C26.4786 23.13 27.3988 20.7737 27.7433 18.1739C28.0722 15.6907 27.9912 13.9999 27.9912 13.9999C27.9912 13.9999 28.0722 12.3089 27.7433 9.82591C27.3988 7.22591 26.4786 4.86981 24.856 3.14401Z" fill="#A4D925"/>
<path d="M14.0002 20.3583C14.4142 20.3583 14.7502 20.6943 14.7502 21.1083V22.6253C14.7502 23.0403 14.4142 23.3753 14.0002 23.3753C13.5862 23.3753 13.2502 23.0403 13.2502 22.6253V21.1083C13.2502 20.6943 13.5862 20.3583 14.0002 20.3583ZM8.4436 18.496C8.7366 18.203 9.2116 18.203 9.5046 18.496C9.7976 18.789 9.7976 19.264 9.5046 19.557L8.4316 20.63C8.2856 20.776 8.0926 20.85 7.9016 20.85C7.7096 20.85 7.5176 20.776 7.3716 20.63C7.0786 20.337 7.0786 19.862 7.3716 19.569L8.4436 18.496ZM18.4959 18.496C18.7889 18.203 19.2639 18.203 19.5569 18.496L20.6289 19.569C20.9219 19.862 20.9219 20.337 20.6289 20.63C20.4829 20.776 20.2909 20.85 20.0989 20.85C19.9079 20.85 19.7149 20.776 19.5689 20.63L18.4959 19.557C18.2029 19.264 18.2029 18.789 18.4959 18.496ZM11.0047 10.9618C12.6887 9.27781 15.4207 9.27781 17.1047 10.9618C18.7887 12.6458 18.7887 15.3778 17.1047 17.0618C15.4207 18.7448 12.6897 18.7448 11.0047 17.0618C9.3217 15.3778 9.3217 12.6458 11.0047 10.9618ZM6.8928 13.2499C7.3068 13.2499 7.6428 13.5859 7.6428 13.9999C7.6428 14.4149 7.3068 14.7499 6.8928 14.7499H5.3748C4.9608 14.7499 4.6248 14.4149 4.6248 13.9999C4.6248 13.5859 4.9608 13.2499 5.3748 13.2499H6.8928ZM22.6252 13.2499C23.0392 13.2499 23.3752 13.5859 23.3752 13.9999C23.3752 14.4149 23.0392 14.7499 22.6252 14.7499H21.1082C20.6932 14.7499 20.3582 14.4149 20.3582 13.9999C20.3582 13.5859 20.6932 13.2499 21.1082 13.2499H22.6252ZM19.5686 7.37051C19.8616 7.07851 20.3366 7.07851 20.6296 7.37051C20.9226 7.66351 20.9226 8.13851 20.6296 8.43151L19.5566 9.50451C19.4106 9.65151 19.2176 9.72451 19.0266 9.72451C18.8346 9.72451 18.6426 9.65151 18.4966 9.50451C18.2036 9.21151 18.2036 8.73751 18.4966 8.44451L19.5686 7.37051ZM7.3709 7.37101C7.6639 7.07801 8.1389 7.07801 8.4319 7.37101L9.5039 8.44401C9.7969 8.73701 9.7969 9.21201 9.5039 9.50501C9.3579 9.65101 9.1659 9.72501 8.9739 9.72501C8.7829 9.72501 8.5899 9.65101 8.4439 9.50501L7.3709 8.43201C7.0779 8.13901 7.0779 7.66401 7.3709 7.37101ZM14.0002 4.62451C14.4142 4.62451 14.7502 4.96051 14.7502 5.37451V6.89251C14.7502 7.30651 14.4142 7.64251 14.0002 7.64251C13.5862 7.64251 13.2502 7.30651 13.2502 6.89251V5.37451C13.2502 4.96051 13.5862 4.62451 14.0002 4.62451Z" fill="white"/>
</g>
<defs>
<clipPath id="clip0_1_2146">
<rect width="28" height="28" fill="white"/>
</clipPath>
</defs>
</svg>

<?xml version="1.0" encoding="UTF-8" standalone="no"?>
<svg
   width="28.000021"
   height="28.000021"
   viewBox="0 0 28.000021 28.000021"
   fill="none"
   version="1.1"
   id="svg952"
   sodipodi:docname="ic_settings_display.svg"
   xmlns:inkscape="http://www.inkscape.org/namespaces/inkscape"
   xmlns:sodipodi="http://sodipodi.sourceforge.net/DTD/sodipodi-0.dtd"
   xmlns="http://www.w3.org/2000/svg"
   xmlns:svg="http://www.w3.org/2000/svg">
  <sodipodi:namedview
     id="namedview954"
     pagecolor="#ffffff"
     bordercolor="#666666"
     borderopacity="1.0"
     inkscape:showpageshadow="2"
     inkscape:pageopacity="0.0"
     inkscape:pagecheckerboard="0"
     inkscape:deskcolor="#d1d1d1" />
  <g
     clip-path="url(#clip0_1_2146)"
     id="g945">
    <path
       d="M 24.856,3.14401 C 23.13,1.52161 20.7739,0.601214 18.1738,0.256914 15.6907,-0.072186 14,0.00881404 14,0.00881404 c 0,0 -1.691,-0.08100004 -4.17421,0.24809996 -2.6,0.3443 -4.956,1.264696 -6.6815,2.887096 -1.6228,1.7258 -2.543099,4.0819 -2.887599,6.6819 -0.3291004,2.48299 -0.2478004,4.17399 -0.2478004,4.17399 0,0 -0.0813,1.6908 0.2478004,4.174 0.3445,2.5998 1.264799,4.9561 2.887399,6.6819 1.7257,1.6226 4.0817,2.5428 6.6817,2.8875 C 12.309,28.0722 14,27.9912 14,27.9912 c 0,0 1.6907,0.081 4.1738,-0.2479 2.6001,-0.3447 4.9562,-1.2649 6.6818,-2.8875 1.623,-1.7258 2.5432,-4.0821 2.8877,-6.6819 0.3289,-2.4832 0.2479,-4.174 0.2479,-4.174 0,0 0.081,-1.691 -0.2479,-4.17399 -0.3445,-2.6 -1.2647,-4.9561 -2.8873,-6.6819 z"
       fill="#a4d925"
       id="path941" />
    <path
       d="m 14.0002,20.3583 c 0.414,0 0.75,0.336 0.75,0.75 v 1.517 c 0,0.415 -0.336,0.75 -0.75,0.75 -0.414,0 -0.75,-0.335 -0.75,-0.75 v -1.517 c 0,-0.414 0.336,-0.75 0.75,-0.75 z M 8.4436,18.496 c 0.293,-0.293 0.768,-0.293 1.061,0 0.293,0.293 0.293,0.768 0,1.061 l -1.073,1.073 c -0.146,0.146 -0.339,0.22 -0.53,0.22 -0.192,0 -0.384,-0.074 -0.53,-0.22 -0.293,-0.293 -0.293,-0.768 0,-1.061 z m 10.0523,0 c 0.293,-0.293 0.768,-0.293 1.061,0 l 1.072,1.073 c 0.293,0.293 0.293,0.768 0,1.061 -0.146,0.146 -0.338,0.22 -0.53,0.22 -0.191,0 -0.384,-0.074 -0.53,-0.22 l -1.073,-1.073 c -0.293,-0.293 -0.293,-0.768 0,-1.061 z m -7.4912,-7.5342 c 1.684,-1.68399 4.416,-1.68399 6.1,0 1.684,1.684 1.684,4.416 0,6.1 -1.684,1.683 -4.415,1.683 -6.1,0 -1.683,-1.684 -1.683,-4.416 0,-6.1 z m -4.1119,2.2881 c 0.414,0 0.75,0.336 0.75,0.75 0,0.415 -0.336,0.75 -0.75,0.75 h -1.518 c -0.414,0 -0.75,-0.335 -0.75,-0.75 0,-0.414 0.336,-0.75 0.75,-0.75 z m 15.7324,0 c 0.414,0 0.75,0.336 0.75,0.75 0,0.415 -0.336,0.75 -0.75,0.75 h -1.517 c -0.415,0 -0.75,-0.335 -0.75,-0.75 0,-0.414 0.335,-0.75 0.75,-0.75 z M 19.5686,7.37051 c 0.293,-0.292 0.768,-0.292 1.061,0 0.293,0.293 0.293,0.768 0,1.061 l -1.073,1.073 c -0.146,0.147 -0.339,0.22 -0.53,0.22 -0.192,0 -0.384,-0.073 -0.53,-0.22 -0.293,-0.293 -0.293,-0.767 0,-1.06 z m -12.1977,5e-4 c 0.293,-0.293 0.768,-0.293 1.061,0 l 1.072,1.073 c 0.293,0.293 0.293,0.768 0,1.061 -0.146,0.146 -0.338,0.22 -0.53,0.22 -0.191,0 -0.384,-0.074 -0.53,-0.22 l -1.073,-1.073 c -0.293,-0.293 -0.293,-0.768 0,-1.061 z m 6.6293,-2.7465 c 0.414,0 0.75,0.336 0.75,0.75 v 1.518 c 0,0.414 -0.336,0.75 -0.75,0.75 -0.414,0 -0.75,-0.336 -0.75,-0.75 v -1.518 c 0,-0.414 0.336,-0.75 0.75,-0.75 z"
       fill="#ffffff"
       id="path943" />
  </g>
  <defs
     id="defs950">
    <clipPath
       id="clip0_1_2146">
      <rect
         width="28"
         height="28"
         fill="#ffffff"
         id="rect947"
         x="0"
         y="0" />
    </clipPath>
  </defs>
</svg>
